X:1
T:The Parakeet
M:4/4
R:Reel
L:1/8
C:Aidan Crossey
F:http://music.paythereckoning.com/blog1.html
K:G
[| G2BG dGBG | F2AF dFAF | E2cE dEcE | A2AB cBAB |
   G2BG dGBG | F2AF dFAF | E2cE dEcE | A2AB cdef |]
[| g2dg Bgdg | f2df Afdf | g2dg ecAG | FGAB cdef |
   g2dg Bgdg | f2df Afdf | e2ef gfef | d2de dBAB |]
